X: 32
T: Mrs. Ferguson of Reith March
T: March, G Dorian
L: 1/16
M: C
K: G Dorian
|: D4G4 G4F2G2| A4G4 G4A2G2| F4f4 f4e2d2| c2B2A2G2 F2G2A2F2|
 D4G4 G4F2G2| A4G4 G4f2g2| a2g2f2d2 f2d2c2A2| G8 G4G2F2:| 
|: D4g4 g4g2a2| f2c2f2a2 g4g2a2| f4f2c2 f2g2a2g2| a2g2f2d2 c4c2f2|
 d2c2d2f2 g4g2a2| f2c2f2a2 g4g2a2| f4c2f2 d2c2A2F2| G8 G4G2F2:| 
D: Wendy MacIsaac, That's What You Get, WMT004
